!!!COM: Palestrina, Giovanni Perluigi da
!!!OPR: Missa In festis Apostolorum (I)
!!!OMD: Gloria
!!!OTL: First Section
**kern	**kern	**kern	**kern	**kern
*Ibass	*Itenor	*Itenor	*Icalto	*Icant
!Bassus	!Tenor 2	!Tenor 1	!Altus	!Cantus
*clefF4	*clefGv2	*clefGv2	*clefG2	*clefG2
*k[]	*k[]	*k[]	*k[]	*k[]
*D:dor	*D:dor	*D:dor	*D:dor	*D:dor
*M4/2	*M4/2	*M4/2	*M4/2	*M4/2
=1	=1	=1	=1	=1
1C	0r	2r	0r	0r
.	.	1c	.	.
1D	.	.	.	.
.	.	2B	.	.
=2	=2	=2	=2	=2
1F	0r	2A	0r	0r
.	.	2A	.	.
[1G	.	4B	.	.
.	.	4A	.	.
.	.	4G	.	.
.	.	4A	.	.
=3	=3	=3	=3	=3
2G]	1r	4B	0r	1r
.	.	4c	.	.
2F	.	1d	.	.
1E	1G	.	.	2r
.	.	2c#	.	[2g
=4	=4	=4	=4	=4
1D	1A	1d	0r	2g]
.	.	.	.	2f
2r	1c	1A	.	2e
[2A	.	.	.	2e
=5	=5	=5	=5	=5
4A]	1.d	1D	0r	4f
4G	.	.	.	4e
4F	.	.	.	4d
4E	.	.	.	4e
2D	.	2r	.	4f
.	.	.	.	4g
2AA	2c	2E	.	[2a
=6	=6	=6	=6	=6
1E	1B	2E	0r	2a]
.	.	2.e	.	2g#
1AA	2A	.	.	1a
.	.	4d	.	.
.	2E	4c	.	.
.	.	4B	.	.
=7	=7	=7	=7	=7
1AA	2F	1A	1c	2r
.	2E	.	.	1cc
1GG	1G	2D	1d	.
.	.	[2d	.	2b
=8	=8	=8	=8	=8
2.D	1A	4d]	1f	2a
.	.	4c	.	.
.	.	2d	.	2a
4D	.	.	.	.
1GG	2.G	[1B	[1g	4b
.	.	.	.	4a
.	.	.	.	4g
.	8F	.	.	4a
.	8E	.	.	.
=9	=9	=9	=9	=9
1GG	1D	1B]	2g]	4b
.	.	.	.	4cc
.	.	.	2f	1dd
1AA	1A	2r	1e	.
.	.	2E	.	2cc#
=10	=10	=10	=10	=10
[0D	1.A	2.F	[0d	[0dd
.	.	4G	.	.
.	.	2A	.	.
.	2G	2B-	.	.
=11	=11	=11	=11	=11
1D_	[0F#	[0A	1d_	1dd_
1D_	.	.	1d_	1dd_
=12	=12	=12	=12	=12
0D]	0F#]	0A]	0d]	0dd]
*-	*-	*-	*-	*-
!!!CDT: 1525/^1526/-1594/2/2
!!!OCY: Italia
!!!AGN: Mass (Paraphrase)
!!!AST: renaissance, vocal
!!!ASW: Gregorian Mass
!!!PWK: Masses, Book Mantuan II
!!!RNB: Cadence finals: A,E
!!!YOR: Le Opere Complete, v. 19, p. 43
!!!YOO: Rome, Italy: Fratelli Scalera
!!!END: 1992//
!!!EED: John Miller
!!!YEC: Copyright 2000, John Miller
!!!YEN: United States of America
!!!YEM: Rights to all derivative electronic formats reserved.
!!!YEM: Refer to licensing agreement for further details.
!!!YEM: This file must be accompanied by the licensing agreement.
!!!YEM: A copy of the licensing agreement may be found at http://www.music-cog.ohio-state.edu/HumdrumDatabases/Palestrina/license.txt
!!!EMD: converted to Humdrum by Bret Aarden
